dist/assets/link.svg

<svg width="20" height="20" viewBox="0 0 20 20" fill="none" xmlns="http://www.w3.org/2000/svg">
<g id="link" clip-path="url(#clip0_0_583)">
<path id="Vector" d="M10.0003 4.10614L7.64331 6.46316L8.82182 7.64168L11.1788 5.28465C12.1511 4.31238 13.7421 4.31238 14.7144 5.28465C15.6867 6.25692 15.6867 7.84792 14.7144 8.82019L12.3574 11.1772L13.5359 12.3557L15.8929 9.9987C17.5192 8.37235 17.5192 5.73249 15.8929 4.10614C14.2665 2.4798 11.6267 2.4798 10.0003 4.10614ZM11.1788 12.3557L8.82182 14.7127C7.84955 15.685 6.25856 15.685 5.28629 14.7127C4.31402 13.7405 4.31402 12.1495 5.28629 11.1772L7.64331 8.82019L6.4648 7.64168L4.10778 9.9987C2.48143 11.625 2.48143 14.2649 4.10778 15.8913C5.73412 17.5176 8.37399 17.5176 10.0003 15.8913L12.3574 13.5342L11.1788 12.3557ZM7.05406 11.7665L11.7681 7.05242L12.9466 8.23093L8.23257 12.945L7.05406 11.7665Z" fill="#1C4980"/>
</g>
<defs>
<clipPath id="clip0_0_583">
<rect width="20" height="20" fill="white"/>
</clipPath>
</defs>
</svg>

<svg xmlns="http://www.w3.org/2000/svg" width="20" height="20" fill="none"><g clip-path="url(#a)"><path fill="#1C4980" d="M10 4.106 7.643 6.463l1.179 1.179 2.357-2.357a2.507 2.507 0 0 1 3.535 0 2.507 2.507 0 0 1 0 3.535l-2.357 2.357 1.179 1.179 2.357-2.357a4.168 4.168 0 0 0 0-5.893 4.168 4.168 0 0 0-5.893 0Zm1.179 8.25-2.357 2.357a2.507 2.507 0 0 1-3.536 0 2.507 2.507 0 0 1 0-3.536L7.643 8.82 6.465 7.642 4.108 9.999a4.168 4.168 0 0 0 0 5.892 4.168 4.168 0 0 0 5.892 0l2.357-2.357-1.178-1.178Zm-4.125-.59 4.714-4.714 1.179 1.179-4.714 4.714-1.179-1.178Z"/></g><defs><clipPath id="a"><path fill="#fff" d="M0 0h20v20H0z"/></clipPath></defs></svg>
